img/logo-desktop.svg

<svg width="118" height="23" viewBox="0 0 118 23" fill="none" xmlns="http://www.w3.org/2000/svg">
<path d="M1.66415 20.3672C0.633975 18.8273 0.1414 16.9853 0.264151 15.1318V7.56623C0.134199 5.69904 0.619329 3.84083 1.64415 2.28042C2.57081 1.07665 4.15415 0.478133 6.39415 0.484858C8.63415 0.491583 10.1508 1.01949 10.9441 2.06858C11.9115 3.36864 12.3835 4.97606 12.2741 6.59784V8.37322H8.13414V6.44653C8.12857 5.93958 8.08511 5.43377 8.00415 4.93341C7.95409 4.57119 7.78922 4.23501 7.53415 3.97511C7.37669 3.83889 7.19388 3.73573 6.99642 3.67164C6.79896 3.60755 6.5908 3.58383 6.38414 3.60187C6.08735 3.55719 5.78412 3.60585 5.51572 3.74122C5.24732 3.8766 5.02679 4.09211 4.88414 4.35843C4.62121 5.06684 4.50548 5.82223 4.54415 6.57766V16.1809C4.49853 16.9413 4.63218 17.7018 4.93415 18.4001C5.07843 18.652 5.29253 18.8559 5.55013 18.9868C5.80773 19.1176 6.09761 19.1696 6.38414 19.1365C6.6657 19.1767 6.95265 19.1261 7.20405 18.9921C7.45544 18.858 7.65846 18.6473 7.78415 18.39C8.02604 17.6803 8.13126 16.9305 8.09414 16.1809V14.1634H12.2341V15.9085C12.356 17.5542 11.9225 19.1931 11.0041 20.5588C10.1241 21.6684 8.60415 22.2132 6.44415 22.2132C4.28415 22.2132 2.59415 21.6079 1.66415 20.3672Z" fill="#111111"/>
<path d="M17.9148 0.777405H22.6548L26.6548 21.961H22.7148L22.0048 17.2804H18.6848L17.8848 21.9307H13.8848L17.9148 0.777405ZM21.5648 14.6174L20.3048 6.10357L19.0548 14.6174H21.5648Z" fill="#111111"/>
<path d="M29.7255 3.96503H26.4855V0.777405H37.2055V3.96503H34.0055V21.9307H29.7155L29.7255 3.96503Z" fill="#111111"/>
<path d="M45.6164 0.777405H53.7464V2.97646H48.5464V9.96705H52.7664V12.0551H48.5464V19.8124H53.7964V21.9307H45.6164V0.777405Z" fill="#444444"/>
<path d="M56.1569 0.777405H58.1569L64.1569 14.8292V0.777405H66.5969V21.961H64.7269L58.7269 7.5158V21.9307H56.2469L56.1569 0.777405Z" fill="#444444"/>
<path d="M69.8276 0.777405H77.9476V2.97646H72.7476V9.96705H77.0076V12.0551H72.7876V19.8124H78.0076V21.9307H69.8276V0.777405Z" fill="#444444"/>
<path d="M80.3582 0.7774H84.5782C86.2412 0.642407 87.8973 1.11104 89.2482 2.09885C90.2482 2.97646 90.7381 4.40887 90.7381 6.39609C90.7381 9.08607 89.8748 10.7303 88.1481 11.3288L91.1481 21.9307H88.3082L85.5582 12.0047H83.2881V21.9307H80.3582V0.7774ZM84.3582 9.85608C85.3215 9.9501 86.2849 9.67657 87.0582 9.08944C87.3724 8.71427 87.6073 8.27822 87.7483 7.8081C87.8893 7.33798 87.9335 6.84373 87.8781 6.35575C87.8982 5.67137 87.8001 4.98869 87.5882 4.33826C87.5022 4.09843 87.3694 3.87844 87.1976 3.69131C87.0258 3.50418 86.8186 3.35371 86.5882 3.24882C85.939 2.98015 85.2389 2.85959 84.5381 2.89576H83.2482V9.89643L84.3582 9.85608Z" fill="#444444"/>
<path d="M94.6788 20.3672C93.7229 18.7397 93.28 16.8576 93.4088 14.9704V7.90924C93.3743 6.54658 93.5429 5.18643 93.9088 3.87427C94.1976 2.88777 94.8114 2.03019 95.6488 1.4432C96.6598 0.828617 97.8301 0.533494 99.0088 0.595855C99.7713 0.522709 100.54 0.618416 101.262 0.876285C101.984 1.13415 102.642 1.54796 103.189 2.08879C104.148 3.44458 104.602 5.09888 104.469 6.75927V7.54609H101.719V6.89041C101.738 6.10618 101.677 5.32206 101.539 4.55012C101.448 4.05541 101.177 3.61288 100.779 3.30937C100.26 3.00033 99.6603 2.85621 99.0588 2.89579C98.4056 2.83942 97.7563 3.04205 97.2488 3.46068C96.8341 3.85764 96.563 4.3832 96.4788 4.95362C96.3521 5.78456 96.2953 6.6248 96.3088 7.46539V15.3235C96.2294 16.5176 96.4316 17.7137 96.8988 18.8137C97.1702 19.152 97.5146 19.4233 97.9058 19.6068C98.2969 19.7902 98.7245 19.881 99.1558 19.8723C99.5871 19.8635 100.011 19.7554 100.394 19.5562C100.778 19.357 101.111 19.072 101.369 18.723C101.851 17.5595 102.059 16.2994 101.979 15.041V13.5481H99.3188V11.46H104.619V21.9308H102.809L102.519 19.4997C102.29 20.3074 101.796 21.0131 101.119 21.5021C100.442 21.991 99.6206 22.2346 98.7888 22.193C98.0067 22.2626 97.2199 22.1317 96.5014 21.8125C95.7829 21.4933 95.1559 20.9962 94.6788 20.3672V20.3672Z" fill="#444444"/>
<path d="M110.699 14.466L106.169 0.777405H108.889L112.099 10.9859L115.259 0.777405H118.009L113.509 14.466V21.9307H110.709L110.699 14.466Z" fill="#444444"/>
</svg>

<svg width="118" height="23" fill="none" xmlns="http://www.w3.org/2000/svg"><path d="M1.664 20.367a8.418 8.418 0 0 1-1.4-5.235V7.566a8.55 8.55 0 0 1 1.38-5.286C2.571 1.077 4.154.478 6.394.485c2.24.007 3.757.534 4.55 1.584a6.82 6.82 0 0 1 1.33 4.529v1.775h-4.14V6.447a10.173 10.173 0 0 0-.13-1.514 1.7 1.7 0 0 0-.47-.958 1.556 1.556 0 0 0-1.15-.373c-.297-.045-.6.004-.868.14-.269.135-.49.35-.632.616a5.562 5.562 0 0 0-.34 2.22v9.603c-.045.76.088 1.52.39 2.22.144.251.359.455.616.586.258.13.548.183.834.15.282.04.569-.01.82-.145.251-.134.454-.345.58-.602.242-.71.347-1.46.31-2.21v-2.017h4.14v1.745a7.361 7.361 0 0 1-1.23 4.65c-.88 1.11-2.4 1.655-4.56 1.655-2.16 0-3.85-.605-4.78-1.846ZM17.915.777h4.74l4 21.184h-3.94l-.71-4.68h-3.32l-.8 4.65h-4L17.915.777Zm3.65 13.84-1.26-8.513-1.25 8.513h2.51ZM29.726 3.965h-3.24V.777h10.72v3.188h-3.2v17.966h-4.29l.01-17.966Z" fill="#111"/><path d="M45.616.777h8.13v2.2h-5.2v6.99h4.22v2.088h-4.22v7.757h5.25v2.119h-8.18V.777ZM56.157.777h2l6 14.052V.777h2.44v21.184h-1.87l-6-14.445V21.93h-2.48L56.157.777ZM69.828.777h8.12v2.2h-5.2v6.99h4.26v2.088h-4.22v7.757h5.22v2.119h-8.18V.777ZM80.358.777h4.22a6.956 6.956 0 0 1 4.67 1.322c1 .877 1.49 2.31 1.49 4.297 0 2.69-.863 4.334-2.59 4.933l3 10.602h-2.84l-2.75-9.926h-2.27v9.926h-2.93V.777Zm4 9.08a3.846 3.846 0 0 0 2.7-.768 3.612 3.612 0 0 0 .82-2.733 5.95 5.95 0 0 0-.29-2.018 1.91 1.91 0 0 0-1-1.09 4.724 4.724 0 0 0-2.05-.352h-1.29v7l1.11-.04ZM94.679 20.367a9.396 9.396 0 0 1-1.27-5.397V7.91a13.73 13.73 0 0 1 .5-4.036 4.517 4.517 0 0 1 1.74-2.43 5.87 5.87 0 0 1 3.36-.848 5.216 5.216 0 0 1 2.253.28c.722.258 1.38.672 1.927 1.213a7.108 7.108 0 0 1 1.28 4.67v.787h-2.75V6.89a11.691 11.691 0 0 0-.18-2.34 2.019 2.019 0 0 0-.76-1.24 2.98 2.98 0 0 0-1.72-.414 2.505 2.505 0 0 0-1.81.565 2.59 2.59 0 0 0-.77 1.493 15.06 15.06 0 0 0-.17 2.511v7.858a7.634 7.634 0 0 0 .59 3.49 2.81 2.81 0 0 0 4.47-.09 8.253 8.253 0 0 0 .61-3.682v-1.493h-2.66V11.46h5.3v10.47h-1.81l-.29-2.43a3.722 3.722 0 0 1-1.4 2.002 3.667 3.667 0 0 1-2.33.691 4.623 4.623 0 0 1-2.288-.38 4.666 4.666 0 0 1-1.822-1.446ZM110.699 14.466 106.169.777h2.72l3.21 10.209 3.16-10.209h2.75l-4.5 13.689v7.465h-2.8l-.01-7.465Z" fill="#444"/></svg>
